dist/img/svg/services/ventilation/humidification.svg

<svg width="20" height="20" viewBox="0 0 20 20" fill="none" xmlns="http://www.w3.org/2000/svg">
<g clip-path="url(#clip0_166_58)">
<path d="M12.5641 0.90918C14.0875 0.90918 19.0909 9.2048 19.0909 12.3924C19.0909 16.0919 16.1687 19.091 12.5641 19.091C11.714 19.091 10.8858 18.9239 10.114 18.6029C9.8754 18.5037 9.76035 18.2247 9.85705 17.9798C9.95376 17.7349 10.2256 17.6168 10.4642 17.716C11.1252 17.9909 11.8345 18.1341 12.5641 18.1341C15.6538 18.1341 18.1585 15.5248 18.1585 12.3924C18.055 9.05725 13.4684 2.38859 12.5277 1.87329C11.5601 2.42082 8.57088 7.41649 7.81939 9.24719C7.71597 9.48919 7.44099 9.59933 7.20519 9.49319C6.9694 9.38705 6.86209 9.10483 6.96551 8.86283C7.81939 6.63793 11.2351 1.02704 12.5641 0.90918ZM10.2331 15.7417C10.4905 15.7417 10.6993 15.9559 10.6993 16.2202C10.6993 16.4656 10.5169 16.6987 10.2331 16.6987C9.51648 16.6987 8.96343 17.6556 7.90331 17.6556C6.84319 17.6556 6.30455 16.6987 5.57106 16.6987C4.83757 16.6986 4.31312 17.6556 3.24006 17.6556C2.49446 17.6556 1.76343 17.2805 1.04896 16.5619C0.865064 16.377 0.862073 16.074 1.04228 15.8853C1.22249 15.6966 1.51766 15.6935 1.70155 15.8784C2.25576 16.4358 2.76796 16.6987 3.24006 16.6987C3.89375 16.6987 4.4915 15.7416 5.57106 15.7417C6.65062 15.7418 7.2009 16.6987 7.90081 16.6987C8.60072 16.6987 9.08956 15.7418 10.2331 15.7417ZM6.23307 12.8278C7.35575 12.8278 7.89752 13.7848 8.56861 13.7848C9.03783 13.7895 9.54787 13.5278 10.101 12.9662C10.284 12.7803 10.5792 12.7819 10.7603 12.9698C10.9414 13.1577 10.9398 13.4606 10.7567 13.6465C10.0412 14.3729 9.30901 14.7417 8.55953 14.7417C7.48054 14.7417 6.97229 13.7848 6.23307 13.7848C5.49384 13.7848 4.97148 14.7418 3.90331 14.7417C2.83514 14.7416 2.30773 13.7848 1.57106 13.7848C1.31359 13.7848 1.10486 13.5706 1.10486 13.3063C1.10486 13.0421 1.31359 12.8278 1.57106 12.8278C2.68703 12.8279 3.21739 13.7847 3.90082 13.7848C4.58424 13.7848 5.11039 12.8279 6.23307 12.8278ZM10.2331 10.0001C10.4905 10.0001 10.6993 10.2143 10.6993 10.4786C10.6993 10.7239 10.5024 10.957 10.2331 10.957C9.4593 10.957 8.99456 11.911 7.90331 11.914C6.81206 11.9169 6.31507 10.957 5.57106 10.957C4.82706 10.957 4.33414 11.914 3.24006 11.914C2.49443 11.914 1.76343 11.5389 1.04896 10.8203C0.865064 10.6353 0.862073 10.3324 1.04228 10.1437C1.22249 9.95494 1.51766 9.95187 1.70155 10.1368C2.25576 10.6942 2.76796 10.957 3.24006 10.957C3.91636 10.9538 4.47058 10.0001 5.57106 10.0001C6.67154 10.0001 7.20519 10.9589 7.90081 10.957C8.59643 10.9551 9.11632 10.0001 10.2331 10.0001Z" fill="#78C081"/>
</g>
<defs>
<clipPath id="clip0_166_58">
<rect width="20" height="20" fill="white"/>
</clipPath>
</defs>
</svg>

<svg width="20" height="20" fill="none" xmlns="http://www.w3.org/2000/svg"><g clip-path="url(#clip0_166_58)"><path d="M12.564.91c1.524 0 6.527 8.295 6.527 11.482 0 3.7-2.922 6.699-6.527 6.699-.85 0-1.678-.167-2.45-.488a.483.483 0 01-.257-.623.462.462 0 01.607-.264 5.45 5.45 0 002.1.418c3.09 0 5.595-2.61 5.595-5.742-.104-3.335-4.69-10.003-5.631-10.519-.968.548-3.957 5.543-4.709 7.374a.462.462 0 01-.614.246.483.483 0 01-.24-.63c.854-2.225 4.27-7.836 5.6-7.954zm-2.33 14.832c.257 0 .465.214.465.478a.467.467 0 01-.466.479c-.717 0-1.27.957-2.33.957s-1.598-.957-2.332-.957c-.733 0-1.258.957-2.33.957-.747 0-1.478-.375-2.192-1.094a.487.487 0 01-.007-.677.458.458 0 01.66-.007c.554.558 1.066.82 1.538.82.654 0 1.252-.956 2.331-.956 1.08 0 1.63.957 2.33.957.7 0 1.189-.957 2.332-.957zm-4-2.914c1.122 0 1.664.957 2.335.957.469.005.979-.257 1.532-.819a.458.458 0 01.66.004c.18.188.179.49-.004.676-.716.727-1.448 1.096-2.197 1.096-1.08 0-1.588-.957-2.327-.957-.74 0-1.262.957-2.33.957s-1.595-.957-2.332-.957a.472.472 0 01-.466-.479c0-.264.209-.478.466-.478 1.116 0 1.646.957 2.33.957.683 0 1.21-.957 2.332-.957zm4-2.828c.257 0 .465.214.465.479a.477.477 0 01-.466.478c-.774 0-1.238.954-2.33.957-1.09.003-1.588-.957-2.332-.957-.744 0-1.237.957-2.33.957-.747 0-1.478-.375-2.192-1.094a.487.487 0 01-.007-.676.458.458 0 01.66-.007c.554.557 1.066.82 1.538.82.676-.003 1.23-.957 2.331-.957 1.1 0 1.634.959 2.33.957.695-.002 1.215-.957 2.332-.957z" fill="#78C081"/></g><defs><clipPath id="clip0_166_58"><path fill="#fff" d="M0 0h20v20H0z"/></clipPath></defs></svg>
